X:1
T:Les Sept Ivresses
T:L'Or
T:Les Sept Ivresses
T:7. L'Or
T:Holmès, Augusta
T:(Holmès)
T:OpenScore (CC0)
T:OpenScore (CC0)
T:OpenScore (CC0)
T:OpenScore (CC0)
T:OpenScore (CC0)
T:OpenScore (CC0)
T:OpenScore (CC0)
T:OpenScore (CC0)
T:OpenScore (CC0)
T:OpenScore (CC0)
T:OpenScore (CC0)
T:OpenScore (CC0)
T:OpenScore (CC0)
T:OpenScore (CC0)
C:Holmès, Augusta Mary Anne
Z:idem
Z:OpenScore (CC0)
%%score 1 { ( 2 4 ) | ( 3 5 ) }
L:1/8
Q:1/2=54
M:4/4
K:C
V:1 treble nm="Voix"
V:2 bass nm="Piano"
V:4 bass 
V:3 bass 
V:5 bass 
V:1
"^Allegro maestoso" z8 | z8 | z8 | z8 | z8 | z8 | z8 | z8 | z8 | z8 | z z z2 z4 | z8 | z8 | z8 | %14
w: ||||||||||||||
 z8 | z8 ||[K:Db]!f! f4 f3 f | F4- F2 z d | f4 f2 e d | f4- f2 z _d | f4 f2 e d | g4- g2 z2 | %22
w: ||Rou- ges- ser-|pents, _ o|flam- mes é- per-|du- es, Sif-|flez et tor- dez-|vous! _|
 g4 g3 g | G3 G =A4- |!<(! =A2 c2 e3!<)! g | (=g4 G2) z2 | e3/2 B/!<(! e2- e z B3/2 B/ | %27
w: Vents, a- gi-|tez vos ai-|les les é- ten-|du- es,|Lour- des * eaux dé- chi-|
 e6 e2!<)! |!ff! (^g8 | ^G2-) G z z4 |!p! (c4 =B4) | (_B4 =A4) |!<(! (B2 d2!<)! B2) d3/2 d/ | %33
w: \- rez les|nu|es! _|Ter- re,|gron- de|gron- * de en un|
!<(! B6!<)! B2 |!f! f8 |!f! (g4 d2) z B | f4- f2 z f/ f/ | (g4 d2) z B | f4 f z f2 | B4 B3 B | %40
w: noir cour-|roux!|Syl- phes! On-|dins! _ Sa- la-|\- man- dres, et|Gno- mes, Quit-|tez vos fa-|
 g4 f2 f2 | (_f8 | d2) z2 c3 B | f8- | f8 ||[Q:1/2=69]"^Plus vite" B2- B z z4 | z8 | z8 | z8 | z8 | %50
w: rou- ches roy-|\- au-|mes, Ac- cou-|rez|_|tous! _|||||
 z8 | z8 | z8 |!mf! B3/2 B/ B4 B3/2 B/ | f8 | f2 z2 z4 |!f! B2 B6- | B2 B2 B3 B | f8- | f4- f2 z2 | %60
w: |||Par la coupe et l'é-|\- pé-|e|Par l'Aigle|_ et le Tau-|reau,|_ _|
!f! B2 B3/2 B/ B3 B | B3 B B B B B | f8 | f2 z2 z4 |!f! B2 B3/2 B/ f4- | f2 B2 B3 B | f8- | %67
w: Par la fau- cil- le|neuve et dans le sang trem-|pé-|\- e,|Par la ci- gü-|e et le su-|\- reau!|
 f2 z2 z2!ff! f f | a4 e3 f | g3 g d2 e2 | f3 f d2 e2 | f4- f z f2 | g3 g d2 z B | f4- f2 z f | %74
w: _ Par la|croix de lu-|\- mière et par l'é-|toi- le du ma-|tin, _ Es-|\- prits du feu, de|l'air, _ de|
 g4 g2 d3/2 B/ | f4 f z f2 | B3 c d2 f2 | g4- (3(g2 d2) e2 | f6 f2 | B8- | B2 z2 z4 | z8 | %82
w: l'onde et de la|ter- re, O-|bé- is- sez au|maî- * * tre|du des-|tin!|_||
 z4!f! B3 B | g8- | g4 d4 | B8 | G4 z2 A2 | B8- | B8 | E8- | E2 z2 z4 | z8 | z8 || %93
w: Que le|feu|_ ma-|gi-|que s'al-|lu-||me!|_|||
[K:Ab][Q:1/4=54]"^Andante non troppo lento" z8 | z8 | z8 | z8 | z8 | z8 | z8 | z8 | z8 | z8 | z8 | %104
w: |||||||||||
 z!p! c c c c c c c | c8 | c2 e4 (A>B) | c2 (3(BA) c e2- e2 | z!f! d c B e4 | d2 c B e4 | %110
w: Que sous l'in- can- des- cen- te|bru-|\- me Dont l'ar- *|\- deur va _ crois- sant, _|Dans le creu- set|in- can- des- cent|
 z2!<(! A4 A2!<)! |!mf! (_g4 f2) z2 | z2!f!"^cresc." (a2 g2) f3/2 f/ |!mf! (e2 f4) c2 | (e8 | %115
w: Nais- se|l'or!  _|l'or _ qui bouil-|\- lonne _ et|fu-|
[Q:1/4=56] A2-) A z[Q:1/4=58] z4[Q:1/4=57] | z2!f! (3(Ac) e[Q:1/4=60] f2-[Q:1/4=61] f z[Q:1/4=59] | %117
w: \- me!  _|Je _ le vois! _|
[Q:1/4=62] z2!f! (3(B=d)[Q:1/4=63] f g2- g z[Q:1/4=64] | %118
w: Je _ le vois! _|
 z[Q:1/4=66] c- (3(cA) c f2- (3f e d[Q:1/4=68] |[Q:1/4=70] f2 z f[Q:1/4=72] f2- (3f f f | %120
w: Il _ _ ré- siste, _ il se|tord, Il bat _ comme un|
 A2 z!ff! f a4- ||[M:2/4] (a4 || %122
w: cœur! O joi-||
[M:4/4]"^a tempo"[Q:1/4=54] e2-) e z[Q:1/4=52] z2!<(! (3(Ac) e!<)! | (g2[Q:1/4=49] f2 e2-) e z | %124
w: \- e!  _ O _ sup-|pli- * ce!  _|
[Q:1/4=54] z8 | z8 |!f! =e e3/4 e/4 =B z/ ^G/ _e2- e z/ e/ |!f! _g2 g _d/ B/ f2 f z | %128
w: ||An- ges, dé- mons, à moi! _ Que|l'œu- vre s'ac- com- plis- se,|
 a2 e3/2 c/ (a2 e) z/ c/[Q:1/4=60] |[Q:1/4=63] a6 (a2 |[Q:1/4=65] B4-) B2 z2 |[Q:1/4=68] z8 | z8 | %133
w: Dût le vain- queur _ trou-|ver la|mort! _|||
 z8[Q:1/4=64][Q:1/4=60] | z8 |!p! e4- e2 z"^dim." f | e8- |[Q:1/4=56] e4- e2 z2 | z8 || %139
w: ||Or, _ so-|leil!|_ _||
!pp!"^Molto più lento"[Q:1/4=52] (c2 e2[Q:1/4=50] f2 a2 |"^trainez"[Q:1/4=48] g2 f>c e4) | %141
w: Ab- so- lu su-|prê- * * me!|
[Q:1/4=52] z2 A3/2 B/ c4- | c2 (3(BA) c e2- e2 |!p! f4 e2 (3(cB) A | (d2 f2 e4) | _g4 f2!f! e d | %146
w: près de toi|_ tout * est vain! _|O fils de * mon|â _ me!|O fils de mon|
 (_g4 f2)!f! f2 | b2 a3/2 a/ g2 f3/2 f/ | (e2 f4)!pp! c3/2 d/ | e8 | %150
w: â- me! O|fils de mon âme el- le|même _ Or puis-|sant,|
 f2 z2"^rall."[Q:1/4=44]!<(! (e4!<)! |!f! a8-) |[Q:1/4=40] a8- | a z z2 !fermata!z4 |] %154
w: Or di-|vin! |_||
V:2
!p!!>(! (!//-!^A,2 ^F,2 !//-!=A,2 F,2)!>)! |!p!!>(! (!//-!^A,2 ^F,2 !//-!=A,2 F,2)!>)! | %2
!p! (!//-!^A,2 ^F,2 !//-!A,2 F,2 |!<(! !//-!^A,2 ^F,2 !//-!A,2 F,2)!<)! | %4
 (!//-!B,2!f! G,2 !//-!_B,2 G,2) |!>(! (!//-!=B,2 G,2 !//-!_B,2 G,2)!>)! | %6
!>(! (!//-!B,2 G,2 !//-!B,2 G,2!>)! |!p!!<(! !//-!B,2 G,2 !//-!B,2 G,2)!<)! | %8
!f! (!//-!C2 _A,2 !//-!_C2 A,2) | (!//-!C2 _A,2 !//-!_C2 A,2) | %10
!mf!"_cresc." !///-!!>!C _A, !///-!!>!B, G, !///-!!>!^C =A, !///-!!>!=C _A, | %11
 !///-!!>!^D B, !///-!!>!=D _B, !///-!!>!F _D !///-!!>!E C | %12
 !///-!!>!F _D !///-!!>!E C !///-!!>!F D [CE] z | %13
[K:treble]!f!"_cresc." !>![FG_B_df]2 [=E^G=B=e]2 !>![FG_Bdf]2 !>![EG=Be]2 | %14
 !>![GAc_eg]2 !>![^F^A^c^f]2 !>![ABda]2 !>![_Ac_e_a]2 | %15
 !>![B^cgb]2 [_Bdf_b]2 !>![^c^da^c']2 !>![=ceg=c']2 || %16
[K:Db]!ff! [_cf_c'] z!p! !///-!f c !///-!f2 c2 | !///-!f _c!f! !>!d2 !>!c2-!mf! c z | %18
!mf! !//-!f2 _c2 !//-!f2 c2 | !///-!f _c!f! z2 z2!mf! !///-!f c |!<(! !//-!f2 _c2 !//-!f2!<)! c2 | %21
!ff!({c'd')e'f'} [gg'] z!f! x2 x2!p! !///-!g c | !//-!g2 c2 !//-!g2 c2 | %23
"_cresc." !//-!g2 c2 !//-!g2 c2 | !//-!g2 c2 !//-!g2 c2 |!f! !///-!=g d z2 z2 !///-!g d | %26
!p! (!//-!e2 d2 !//-!e2 d2 |!<(! !//-!e2 d2 !///-!e d e)!<)! z | %28
!ff! [^G=B=e^g] z !>!=e2 !>!=d2 !>!=E2 | !>!=D2[K:bass] !>!=E,2 !>!=D,2 !>!E,2 | %30
!p! !//-!C2!>(! A,2 !//-!=B,2 =G,2 | (!//-!_B,2 _G,2 !//-!=A,2 F,2)!>)! | %32
!<(! (!///-!B, G, !///-!=A, F,!<)!!mp!!<(! !///-!B, G, !///-!A, F,)!<)! | %33
!mp!!<(! !///-!B,4 G,4!<)! | %34
[K:treble] [F,=A,] z!<(! F,/=G,/4=A,/4B,/4C/4=D/4=E/4 F2- (F/4=G/4=A/4B/4c/4=d/4=e/4f/4)!<)! | %35
!f! [GBdg]2- [GBdg] z!<(! _F2 (7:4:7(G/A/B/_c/d/e/_f/)!<)! | %36
!f! [=A=f]2- [Af][Ff]/[Ff]/ (3[Ff][Ac][Ff] (3[Ff][Ac][Ff] | %37
!f! [GBdg]2- [GBdg] z!<(! _F2 (7:4:7(G/A/B/_c/d/e/_f/)!<)! | %38
 [=A=f]2- [Af]!f![Ff]/[Ff]/ (3[Ff][Ac][Ff] (3[Ff][Ac][Ff] | [Bb]4 [ABfa]3 [ABfa] | %40
 [GBeg]4 [FBdf]3 [FBdf] | %41
 [_FB_f]2- [FBf]/!<(!(G/4A/4B/4_c/4d/4e/4 f2- f/g/4a/4b/4_c'/4d'/4e'/4!<)! | _f') z z2 z4 | %43
!f! [FBdf] z z2 z4 | [F=Acf] z z2 z4 ||!f! [Bdfb] z z2 z4 | z8 | %47
[K:bass]!p! (3:2:4!>![=B,,^D,]z/.[B,,D,]/.[B,,D,] (3.[B,,D,].^F,,.[B,,D,] (3.[B,,D,].F,,.[B,,D,] (3.[B,,D,].F,,.[B,,D,] | %48
"_crescendo" (3:2:4!>![C,=E,]z/.[C,E,]/.[C,E,] (3.[C,E,].=G,,.[C,E,] (3:2:4!>![D,F,]z/.[D,F,]/.[D,F,] (3.[D,F,].A,,.[D,F,] | %49
 (3:2:4!>![=D,^F,]z/.[D,F,]/.[D,F,] (3.[D,F,].=A,,.[D,F,] (3.[E,=G,].B,,.[E,G,] (3.[=E,^G,].=B,,.[E,G,] | %50
 (3:2:4!>![F,=A,]z/.[F,A,]/.[F,A,] (3.[F,A,].C,.[F,A,] (3.[G,B,].D,.[G,B,] (3.[=G,=B,].=D,.[G,B,] | %51
 (3:2:4!>![A,C]z/.[A,C]/.[A,C] (3.[A,C].E,.[A,C] (3:2:4!>![=A,^C]z/.[A,C]/.[A,C] (3.[A,C].=E,.[A,C] | %52
!f! (3:2:4[F,B,=D]z/!p!"_sempre staccato".=A,/.B, (3._C.B,.A, (3.B,.A,.B, (3.=B,.C.D | %53
 (3.C.=B,.C (3.D.C.B, (3.C.B,.C (3.^C.=D.E | %54
"_cresc." (3.=D._D.C (3.=B,._B,.=A, (3.B,.=B,.C (3.^C.=D.E | %55
 (3.=E._E.=D (3._D.C.=B, (3.C.^C.=D (3.E.=E.F | %56
[K:treble] (3.G.F.=E (3._E.=D._D (3.C.^C.=D (3.E.=E.F | (3.G.F.G (3.G.^F.G (3.A.G.A (3.=A.^G.A | %58
 (3.B.=A._A (3.=G._G.F (3.=E.F.G (3.=G.A.=A | (3.B.=A.B (3.=B.c.B (3._B.=B.c (3.d.c.d | %60
 (3.=d._d.c!mf! (3.=B._B.=A (3.B.=B.c (3.^c.=d.e | (3.=e._e.=d (3._d.c.d (3.=d.e.=e (3.f.g.=g | %62
 (3.a.=g._g (3.f.=e._e (3.=e.f.g (3.=g.a.=a | %63
"_molto cresc." (3.b.=a._a (3.=g.a.=a (3.b.=b.c' (3._d'.c'.d' | %64
 (3.=d'._d'.c' (3.=b._b.=a (3.b.=b.c' (3.d'.=d'.e' | %65
!8va(! (3.=e'.f'.g' (3.=g'._g'.=g' (3.a'.g'.a' (3.=a'.^g'.a' | %66
!f! (3.b'.=a'.b'"_cresc." (3!>!.[=d'_c''].b'.a' (3._a'.=a'.b' (3!>!.[d'c''].b'.a' | %67
 (3!>!.[=d'_c''].b'.=a' (3._a'.=a'.b' (3!>!.[d'c''].b'.a' (3!>!.[d'c''].b'.a' | %68
!ff! (3[c'_a'][c'a'][c'a'] (3[c'a'][c'a'][c'a'] (3[c'a'][c'a'][c'a'] (3[c'a'][c'a'][c'a'] | %69
 (3[d'b'][d'b'][d'b'] (3[d'b'][d'b'][d'b'] (3[d'b'][d'b'][d'b'] (3[e'b'][e'b'][e'b'] | %70
 (3[f'=a'][f'a'][f'a'] (3[f'a'][f'a'][f'a'] (3[d'b'][d'b'][d'b'] (3[c'a'][c'a'][c'a'] | %71
 [d'a'] z [bd']>[c'e'] [d'f']!8va)! z z2 |!f! [GBdg]2- [GBdg] z!<(! _F2 (6:4:6(G/A/B/_c/d/e/) | %73
 [=A=f]2-!<)! [Af] [Ff]/[Ff]/ (3[Ff][Ac][Ff] (3[Ff][Ac][Ff] | %74
!f! [GBdg]2- [GBdg] z!<(! _F2 (6:4:6(G/A/B/_c/d/e/)!<)! | %75
 [=A=f]2- [Af]/ z/ [Ff]/[Ff]/ (3[Ff][Ac][Ff] (3[Ff][Ac][Ff] |!f! B3 c d2 f2 | g4- (3(g2 d2) e2 | %78
 [FBdf] z z2 [F=Acf] z z2 |!ff!!8va(! [gbd'g']8- | [gbd'g']!8va)! z z2!f! !>![Dd]4 | %81
 !>![B,B]4 !>![G,G]4 |[K:bass] !>![D,D]4 !>![B,,B,]4 |!f!"_dim." !>![G,,G,]8- | [G,,G,]4 z4 | z8 | %86
 z8 | [E,G,B,]2 z2 z4 | [=D,F,B,]2 z2 z4 |!p! !//-!!>!E,2!>(! _F,2 z4 | !//-!!>!E,2 _F,2!>)! z4 | %91
!pp! !///-!E,4 _F,4 | z8 || %93
[K:Ab]!p! (6:4:6z/ (C/A,/!<(! C/A,/C/) (6:4:6z/ (C/A,/ C/A,/C/) (6:4:6z/ (C/A,/ C/A,/C/)!<)! (6:4:6z/ (C/A,/ C/A,/C/) | %94
!>(! (6:4:6z/ (C/A,/ C/A,/C/) (6:4:6z/ (C/A,/ C/A,/ z/)!>)! (6:4:6z/ (C/A,/ C/A,/C/ (6:4:6A,/C/A,/ C/A,/C/) | %95
 (6:4:6z/ (E,/C,/E,/C,/E,/)!<(! (6:4:6z/ (E,/C,/ E,/C,/) z/ (6:4:6z/ (A,/E,/ A,/E,/A,/) (6:4:6z/ (E,/C,/!<)! E,/C,/) z/ | %96
!<(! (6:4:6z/ (A,/E,/ A,/E,/A,/) z2!<)! (6:4:6z/ (C/A,/ C/A,/C/ (6:4:6A,/C/A,/ C/A,/C/) | %97
!f! (6:4:6z/ (D/A,/ D/A,/D/!>(! (6:4:6A,/D/A,/ D/A,/D/) (6:4:6z/ (C/A,/ C/A,/C/) z2!>)! | %98
 (6:4:6z/ (A,/F,/ A,/F,/A,/) (6:4:6z/ (D/A,/ D/A,/D/) (6:4:6z/ (C/A,/ C/A,/C/ (6:4:6A,/C/A,/ C/A,/C/) | %99
!f! (6:4:6z/ (C/A,/ C/A,/C/ (6:4:6A,/C/A,/ C/A,/C/) (6:4:6z/ (D/A,/ D/A,/D/) (6:4:6z/ (A,/F,/ A,/F,/) z/ | %100
 (6:4:6z/ (C/A,/ C/A,/C/ (6:4:6A,/C/A,/ C/A,/C/) (6:4:6z/ (D/A,/ D/A,/D/) (6:4:6z/ (F/D/ F/D/F/)!f! | %101
 (6:4:6(D/!>(!F/D/ F/D/F/) (6:4:6z/ (F/D/ F/D/F/) (6:4:6z/ E/B,/ E/B,/E/ (6:4:6z/ D/A,/ D/A,/!>)!D/ | %102
 (6:4:6z/ (C/A,/ C/A,/C/) (6:4:6z/ (C/A,/ C/A,/C/ (6:4:6A,/C/A,/ C/A,/C/)!pp! (6:4:6z/ A,/E,/ A,/E,/ z/ | %103
 (6:4:6z/ (C/G,/ C/G,/C/ (6:4:6G,/C/G,/ C/G,/C/) (6:4:6z/ (G,/E,/ G,/E,/G,/) (6:4:6z/ (G,/E,/ G,/E,/G,/) | %104
[K:treble]!p! (C2 E2 F2 A2 | G2 F>C E4) | %106
 (6:4:6z/ (E/C/ E/C/E/) (6:4:6z/ (E/C/ E/C/) z/ (6:4:6z/ (A/E/ A/E/A/) (6:4:6z/ (E/C/ E/C/) z/ | %107
 (6:4:6z/ (A/E/ A/E/A/) z2 (6:4:6z/!<(! (c/A/ c/A/c/ (6:4:6A/c/A/ c/A/c/)!<)! | %108
 (6:4:6z/ (d/A/ d/A/d/ (6:4:6A/d/A/ d/A/d/) (6:4:6z/ (c/A/ c/A/c/) z2!f! | %109
"_crescendo" (6:4:6z/ (A/F/ A/F/A/) (6:4:6z/ (d/A/ d/A/d/) (6:4:6z/ (c/A/ c/A/c/) z2 | %110
 (6:4:6z/ (c/A/ c/A/c/ (6:4:6A/c/A/ c/A/c/) (6:4:6z/ (d/A/ d/A/d/) (6:4:6z/ (A/F/ A/F/) z/ | %111
!mp! (6:4:6z/ c/A/ c/A/c/ (6:4:6A/c/A/ c/A/c/ (6:4:6z/ d/A/ d/A/d/ (6:4:6z/ f/d/ f/d/f/ | %112
 (6:4:6d/f/d/ f/d/f/ (6:4:6z/ f/c/ f/c/f/ (6:4:6z/ e/B/ e/B/e/ (6:4:6z/ d/A/ d/A/d/ | %113
!mf! (6:4:6z/ c/A/ c/A/c/ (6:4:6z/ c/A/ c/A/c/ (6:4:6A/c/A/ c/A/c/ (6:4:6z/ A/E/ A/E/ z/ | %114
"_crescendo" (6:4:6z/ (c/G/ c/G/c/ (6:4:6G/c/G/ c/G/c/) (6:4:6z/ (G/E/ G/E/G/) (6:4:6z/ (G/E/ G/E/G/) | %115
!f!"^Più mosso" (6:4:6z/ (E/A,/ E/"_accel."A,/E/ (6:4:6A,/E/A,/ E/A,/E/) (6:4:6z/ (D/A,/ D/A,/D/) z2 | %116
 (6:4:6z/ (E/A,/ E/"_accel."A,/E/ (6:4:6A,/E/A,/ E/A,/E/) (6:4:6z/ (D/A,/ D/A,/D/) z2 | %117
!f! (6:4:6z/ F/B,/ F/B,/F/ (6:4:6B,/F/B,/ F/B,/F/ (6:4:6z/ E/B,/ E/B,/E/ z2 | %118
 (6:4:6z/ (G/C/"_accel." G/C/G/) (6:4:6z/ (F/C/ F/C/F/) (6:4:6z/ ((_c/F/ c/F/c/)) z2 | %119
 [_c_c']2 (3[Ff][Aa][cc'] [ee']2 [dd'][cc'] | %120
 [ff'] [_g_g']2!ff! (([=g=g']!8va(! [gg'])) [aa']2 [=a=a']- ||[M:2/4] [=a=a'] [bb']2 [=b=b'] || %122
[M:4/4]"_a tempo"!ff! [c'c'']"_allarg." z !>![eac'e']2 !>![fac'f']2 !>![ac'a']2 | %123
 [gc'g']2 [fc'f']>[cc'] [eac'e']2- [eac'e']!8va)! z | %124
!f!!<(! ([EAce]2 [Acea]>[Bb] [ceac']2 [Acea]>[Bb] | %125
 [ceac']2 (3[Beb]!<)![Aa][ceac'] [eac'e']2- [eac'e']) z | %126
!f! ([=E^G=B=e]4 [_EAc_e]/) z/ !>![Ee]!>![Ff]!>![Aa] | %127
!f! ([_GBd_g]4 [FB=df]/) z/ !>![Ff]!>![Gg]!>![Bb] | %128
 [Acea]2"_animando" (3([_G_g][Aa]!<(![Bb] (3[cc'][Gg][Aa] (3[Bb][cc'][dd']!f! | %129
 (3[ee'][Bb][cc'] (3[dd'][ee'][ff'] (3[_g_g'][ee'][ff']!<)! (3[gg'][aa'][=a=a'] | %130
!f!!8va(! [bf'b'])!8va)!"_accel.  e  cresc." z ([Aa]2 [Gg]2 (3[Ff][Gg][Bb] | %131
 [dfd']2 [cc']2 [Bb][Aa] (3[Bb][dd'][ff'] | [gd'g']2) ([ff']2 [ee'] [dd']2) ([ff'] | %133
!ff!"_allarg.   e    dim."!8va(! [bf'b']2)!>(! ([aa']2 [gg']2 [ff']2 | %134
 [ee']2 [fac'f']4) ([cac'][dd']!>)! |!p! !arpeggio![egc'e']4-) [egc'e']2 z2 | %136
!pp! !arpeggio![egc'e']4- [egc'e']2 z2 |"_rall." !arpeggio![fbd'f']4- [fbd'f']2 z2 | %138
!ppp! !arpeggio![gbd'g']4- [gbd'g']2!8va)! !fermata!z2 ||!pp! !arpeggio![ca]8 |!mf! [ac']8 | %141
!p! !arpeggio![eac'e']8- | [eac'e']4- [eac'e']2 z2 |!p! !arpeggio![faf']4 !arpeggio![eae']4 | %144
 !arpeggio![faf']4 !arpeggio![eae']4 |!f! !arpeggio![_ga_b']4 !arpeggio![faf']4 | (b2 a2) x4 | %147
!f! (!arpeggio![bd'g']2 !arpeggio![ac'f']2!>(! !arpeggio![gbe']2 !arpeggio![ad']2!>)! | %148
 [be']2) c'4- c' z |!p! !arpeggio![egc'e']8 | !arpeggio![fbd'f']4"_rall." !arpeggio![gbd'e']4 | %151
!pp!!8va(! !arpeggio![ac'a']8- | [ac'a']8- | [ac'a']!8va)! z z2 !fermata!z4 |] %154
V:3
 (^F,,4 D,,>A,, D,2) | (^F,,4 D,,>A,, D,2) | (^F,,2 ^E,,4 =E,,2- | E,,2 _E,,2- E,,D,,E,,_G,,) | %4
 (=G,,4 _E,,>_B,, _E,2) | (=G,,4 _E,,>_B,, _E,2) | (G,,2 ^F,,4 =F,,2- | F,,2 E,,2- E,,^D,,E,,G,,) | %8
 (_A,,4 _F,,>_C, _F,2) | (_A,,4 _F,,>_C, _F,2) | _A,,>C, [E,,E,]2 =A,,>^C, [F,,F,]2 | %11
 B,,>^D, [G,,G,]2 _D,>F, [A,,A,]2 | _D,>F, [A,,A,]2 D,>F, [A,,A,]2 | %13
 [_E,,,_E,,]2({=B,,=C,)^D,} =E, [_E,,,_E,,]2({B,,C,)D,} =E, z2 | %14
 [F,,,F,,]2({^C,=D,)^E,} ^F, z [G,,,G,,]2({_E,=F,)G,} _A, z | %15
 [A,,,A,,]2({F,G,)A,} _B, z [=B,,,=B,,]2({G,A,)=B,} C z || %16
[K:Db] [D,,D,] z[K:treble] !///-!F A !///-!F2 A2 | !///-!F A z2 z2 !///-!F A | %18
!ped! !//-!D2 F2 !//-!D2 F2!ped-up! | !///-!F A z2!ped! z2 !///-!F!ped-up! A | %20
!ped! !//-!F2 A2 !//-!F2 A2!ped-up! | [CEG=A] z!ped! x2 x2 !///-![EG]!ped-up! A | %22
 !//-![EG]2 =A2 !//-![EG]2 A2 | !//-![EG]2 =A2 !//-![EG]2 A2 | !//-![EG]2 =A2 !//-![EG]2 A2 | %25
 !///-![E=G] B z2!ped! z2 !///-![EG]!ped-up! B | (!//-![EG]2 B2 !//-![EG]2 B2 | %27
 !//-![EG]2 B2 !///-![EG] B [EG]) z | %28
[K:bass]!ped! !//-![=E,,,^G,,,=B,,,]2 =E,,2 !//-![E,,,G,,,B,,,]2 E,,2 | %29
 !//-![=E,,,^G,,,=B,,,]2 =E,,2 !///-![E,,,G,,,B,,,] _E,, [E,,,G,,,B,,,]!ped-up! z | _E,4- E,2 z2 | %31
 D,4- D,2 z2 | D,8- | D,4- D,2 z2 | %34
 [F,,,F,,]2- [F,,,F,,]/=G,,/4=A,,/4B,,/4C,/4=D,/4E,/4 F,2- F, z | %35
!ped! [_F,,,_F,,]2 (6:4:6(G,,/A,,/B,,/_C,/D,/E,/) _F,2!ped-up! F,,2 | %36
 [=F,,,=F,,]2- [F,,,F,,]/ z/ [F,,F,] (3[F,,F,]C,[F,,F,] (3[F,,F,]C,[F,,F,] | %37
!ped! [_F,,,_F,,]2 (6:4:6(G,,/A,,/B,,/_C,/D,/E,/) _F,2!ped-up! F,,2 | %38
 [F,,,F,,]2- [F,,,F,,]/ z/ [F,,F,] (3[F,,F,]C,[F,,F,] (3[F,,F,]C,[F,,F,] | %39
 [B,,,B,,]4 [=D,,B,,=D,]3 [D,,B,,D,] | [E,,B,,E,]4 [F,,D,F,]3 [F,,D,F,] | %41
 [G,,D,G,]2- [G,,D,G,] z _F,2- F,/(G,/4A,/4B,/4C/4D/4E/4 | _F) z z2 z4 | [F,,B,,D,F,] z z2 z4 | %44
 [F,,,=A,,,C,,F,,] z z2 z4 || %45
!8vb(! (3:2:4.[B,,,,B,,,]z/.[B,,,,B,,,]/.[B,,,,B,,,] (3.[B,,,,B,,,].F,,,.[B,,,,B,,,] (3.[B,,,,B,,,].F,,,.[B,,,,B,,,] (3.[B,,,,B,,,].F,,,.[B,,,,B,,,] | %46
 (3:2:4.[B,,,,B,,,]z/.[B,,,,B,,,]/.[B,,,,B,,,] (3.[B,,,,B,,,].F,,,.[B,,,,B,,,] (3.[B,,,,B,,,].F,,,.[B,,,,B,,,] (3.[B,,,,B,,,].F,,,.[B,,,,B,,,] | %47
 (3:2:4.[B,,,,B,,,]z/.[B,,,,B,,,]/.[B,,,,B,,,] (3.[B,,,,B,,,].F,,,.[B,,,,B,,,] (3.[B,,,,B,,,].F,,,.[B,,,,B,,,] (3.[B,,,,B,,,].F,,,.[B,,,,B,,,] | %48
 (3:2:4.[B,,,,B,,,]z/.[B,,,,B,,,]/.[B,,,,B,,,] (3.[B,,,,B,,,].F,,,.[B,,,,B,,,] (3.[B,,,,B,,,].F,,,.[B,,,,B,,,] (3.[B,,,,B,,,].F,,,.[B,,,,B,,,] | %49
 (3:2:4.[B,,,,B,,,]z/.[B,,,,B,,,]/.[B,,,,B,,,] (3.[B,,,,B,,,].F,,,.[B,,,,B,,,] (3.[B,,,,B,,,].F,,,.[B,,,,B,,,] (3.[B,,,,B,,,].F,,,.[B,,,,B,,,] | %50
 (3:2:4.[B,,,,B,,,]z/.[B,,,,B,,,]/.[B,,,,B,,,] (3.[B,,,,B,,,].F,,,.[B,,,,B,,,] (3.[B,,,,B,,,].F,,,.[B,,,,B,,,] (3.[B,,,,B,,,].F,,,.[B,,,,B,,,] | %51
 (3:2:4.[B,,,,B,,,]z/.[B,,,,B,,,]/.[B,,,,B,,,] (3.[B,,,,B,,,].F,,,.[B,,,,B,,,] (3.[B,,,,B,,,].F,,,.[B,,,,B,,,] (3.[B,,,,B,,,].F,,,.[B,,,,B,,,] | %52
 (3.[B,,,,B,,,].[=A,,,,=A,,,].[B,,,,B,,,] (3.[_C,,,_C,,].[B,,,,B,,,].[A,,,,A,,,] (3.[B,,,,B,,,].[A,,,,A,,,].[B,,,,B,,,] (3.[=B,,,,=B,,,].[C,,,C,,].[D,,,D,,] | %53
 (3.[C,,,C,,].[=B,,,,=B,,,].[C,,,C,,] (3.[D,,,D,,].[C,,,C,,].[B,,,,B,,,] (3.[C,,,C,,].[B,,,,B,,,].[C,,,C,,] (3.[^C,,,^C,,].[=D,,,=D,,].[E,,,E,,] | %54
 (3.[=D,,,=D,,].[_D,,,_D,,].[C,,,C,,] (3.[=B,,,,=B,,,].[_B,,,,_B,,,].[=A,,,,=A,,,] (3.[B,,,,B,,,].[=B,,,,=B,,,].[C,,,C,,] (3.[^C,,,^C,,].[=D,,,=D,,].[E,,,E,,] | %55
 (3.[=E,,,=E,,].[_E,,,_E,,].[=D,,,=D,,] (3.[_D,,,_D,,].[C,,,C,,].[=B,,,,=B,,,] (3.[C,,,C,,].[^C,,,^C,,].[=D,,,=D,,] (3.[E,,,E,,].[=E,,,=E,,].[F,,,F,,] | %56
 (3.[G,,,G,,].[F,,,F,,].[=E,,,=E,,] (3.[_E,,,_E,,].[=D,,,=D,,].[_D,,,_D,,] (3.[C,,,C,,].[^C,,,^C,,].[=D,,,=D,,] (3.[E,,,E,,].[=E,,,=E,,].[F,,,F,,] | %57
 (3.[G,,,G,,].[F,,,F,,].[G,,,G,,] (3.[=G,,,=G,,].[^F,,,^F,,].[G,,,G,,] (3.[A,,,A,,].[G,,,G,,].[A,,,A,,] (3.[=A,,,=A,,].[^G,,,^G,,].[^A,,,^A,,] | %58
 (3.[B,,,B,,].[=A,,,=A,,].[_A,,,_A,,] (3.[=G,,,=G,,].[_G,,,_G,,].[F,,,F,,] (3.[=E,,,=E,,].[F,,,F,,].[G,,,G,,] (3.[=G,,,=G,,].[A,,,A,,].[=A,,,=A,,] | %59
 (3.[B,,,B,,].[=A,,,=A,,].[B,,,B,,] (3.[=B,,,=B,,].[C,,C,].[B,,,B,,] (3.[_B,,,_B,,].[=B,,,=B,,].[C,,C,] (3.[D,,D,].[C,,C,].[D,,D,]!8vb)! | %60
 (3.[=D,,=D,].[_D,,_D,].[C,,C,] (3.[=B,,,=B,,].[_B,,,_B,,].[=A,,,=A,,] (3.[B,,,B,,].[=B,,,=B,,].[C,,C,] (3.[^C,,^C,].[=D,,=D,].[E,,E,] | %61
 (3.[=E,,=E,].[_E,,_E,].[=D,,=D,] (3.[_D,,_D,].[C,,C,].[D,,D,] (3.[=D,,=D,].[E,,E,].[=E,,=E,] (3.[F,,F,].[G,,G,].[=G,,=G,] | %62
 (3.[A,,A,].[=G,,=G,].[_G,,_G,] (3.[F,,F,].[=E,,=E,].[_E,,_E,] (3.[=E,,=E,].[F,,F,].[G,,G,] (3.[=G,,=G,].[A,,A,].[=A,,=A,] | %63
 (3.[B,,B,].[=A,,=A,].[_A,,_A,] (3.[=G,,=G,].[A,,A,].[=A,,=A,] (3.[B,,B,].[=B,,=B,].[C,C] (3.[D,D].[C,C].[D,D] | %64
 (3.[=D,=D].[_D,_D].[C,C] (3.[=B,,=B,].[_B,,_B,].[=A,,=A,] (3.[B,,B,].[=B,,=B,].[C,C] (3.[D,D].[=D,=D].[E,E] | %65
 (3.[=E,=E].[F,F].[G,G] (3.[=G,=G].[_G,_G].[=G,=G][K:treble] (3.[A,A].[=G,=G].[A,A] (3.[=A,=A].[^G,^G].[A,A] | %66
 [B,B] z (3!>!._c.B.=A (3._A.=A.B (3!>!.c.B.A | (3!>!._c.B.=A (3._A.=A.B (3!>!.c.B.A (3!>!.c.B.A | %68
!ped! !arpeggio![Acea]4 z2 !arpeggio![Acea]2!ped-up! | !arpeggio![GBdg]4 z2 !arpeggio![GBdg]2 | %70
 !arpeggio![F=Acf]4 !arpeggio![FBdf]2 !arpeggio![Acea]2 | [Adfa] z [ABd]>[Ace] [Adf] z z2 | %72
[K:bass] [_F,,,_F,,]2 (6:4:6(G,,/A,,/B,,/_C,/D,/E,/) _F,2 _F,,2 | %73
 [=F,,,=F,,]2- [F,,,F,,] [F,,F,] (3[F,,F,]C,[F,,F,] (3[F,,F,]C,[F,,F,] | %74
 [_F,,,_F,,]2 (6:4:6(G,,/A,,/B,,/_C,/D,/E,/) _F,2 _F,,2 | %75
 [=F,,,=F,,]2- [F,,,F,,]/ z/ [F,,F,] (3[F,,F,]C,[F,,F,] (3[F,,F,]C,[F,,F,] | %76
 [B,,,B,,]3 [C,,C,] [D,,D,]2 [F,,F,]2 | [G,,G,]4- (3[G,,G,]2 [D,,D,]2 [E,,E,]2 | %78
 [F,,F,] z z2 [F,,,F,,] z z2 |!8vb(! !///-![F,,,G,,,B,,,]4 _F,,4 | %80
 [F,,,_G,,,B,,,]!8vb)! z z2 !>![D,,D,]4 | !>![B,,,B,,]4 !>![G,,,G,,]4 | %82
!8vb(! !>![D,,,D,,]4 !>![B,,,,B,,,]4 | !///-!B,,,,4 G,,,4 | !///-!B,,,,4 G,,,4 | %85
 !///-!B,,,,4 G,,,4 | B,,,,2!8vb)! z2 z4 |!p! [B,,,B,,]2 z2 z4 | [B,,,B,,]2 z2 z4 | %89
!ped! z4!ped-up!!ped! !//-!!>!E,,2 _F,,2!ped-up! | %90
!ped! z4!ped-up!!ped! !//-!!>!E,,2 _F,,2!ped-up! |!ped! z8!ped-up! | %92
!ped!"^dim." !///-!E,,4!ppp! _F,,4!ped-up! || %93
[K:Ab]!pp!!ped! z/4 (_F,,/4E,,/4F,,/4E,,/4F,,/4E,,/4F,,/4 E,,/4!ped-up!F,,/4E,,/4F,,/4E,,/4F,,/4E,,/4F,,/4)!ped! z/4 (F,,/4E,,/4F,,/4E,,/4F,,/4E,,/4F,,/4 E,,/4!ped-up!F,,/4E,,/4F,,/4E,,/4F,,/4E,,/4F,,/4) | %94
 z/4 (_F,,/4E,,/4F,,/4E,,/4F,,/4E,,/4F,,/4 E,,/4F,,/4E,,/4F,,/4E,,/4F,,/4E,,/4F,,/4) z/4 (F,,/4E,,/4F,,/4E,,/4F,,/4E,,/4F,,/4 E,,/4F,,/4E,,/4F,,/4E,,/4F,,/4E,,/4F,,/4) | %95
 z/4 (_F,,/4E,,/4F,,/4E,,/4F,,/4E,,/4F,,/4 E,,/4F,,/4E,,/4F,,/4E,,/4F,,/4E,,/4F,,/4) z/4 (F,,/4E,,/4F,,/4E,,/4F,,/4E,,/4F,,/4 E,,/4F,,/4E,,/4F,,/4E,,/4F,,/4E,,/4F,,/4) | %96
 z/4 (_F,,/4E,,/4F,,/4E,,/4F,,/4E,,/4F,,/4 E,,/4F,,/4E,,/4F,,/4E,,/4F,,/4E,,/4F,,/4) z/4 (F,,/4E,,/4F,,/4E,,/4F,,/4E,,/4F,,/4 E,,/4F,,/4E,,/4F,,/4E,,/4F,,/4E,,/4F,,/4) | %97
 z/4 (_F,,/4E,,/4F,,/4E,,/4F,,/4E,,/4F,,/4 E,,/4F,,/4E,,/4F,,/4E,,/4F,,/4E,,/4F,,/4) z/4 (F,,/4E,,/4F,,/4E,,/4F,,/4E,,/4F,,/4 E,,/4F,,/4E,,/4F,,/4E,,/4F,,/4E,,/4F,,/4) | %98
 z/4 (_F,,/4E,,/4F,,/4E,,/4F,,/4E,,/4F,,/4 E,,/4F,,/4E,,/4F,,/4E,,/4F,,/4E,,/4F,,/4) z/4 (F,,/4E,,/4F,,/4E,,/4F,,/4E,,/4F,,/4 E,,/4F,,/4E,,/4F,,/4E,,/4F,,/4E,,/4F,,/4) | %99
 z/4 (_F,,/4E,,/4F,,/4E,,/4F,,/4E,,/4F,,/4 E,,/4F,,/4E,,/4F,,/4E,,/4F,,/4E,,/4F,,/4) z/4 (F,,/4E,,/4F,,/4E,,/4F,,/4E,,/4F,,/4 E,,/4F,,/4E,,/4F,,/4E,,/4F,,/4E,,/4F,,/4) | %100
 z/4 (_F,,/4E,,/4F,,/4E,,/4F,,/4E,,/4F,,/4 E,,/4F,,/4E,,/4F,,/4E,,/4F,,/4E,,/4F,,/4) z/4 (F,,/4E,,/4F,,/4E,,/4F,,/4E,,/4F,,/4 E,,/4F,,/4E,,/4F,,/4E,,/4F,,/4E,,/4F,,/4) | %101
 z/4 (_F,,/4E,,/4F,,/4E,,/4F,,/4E,,/4F,,/4 E,,/4F,,/4E,,/4F,,/4E,,/4F,,/4E,,/4F,,/4) z/4 (F,,/4E,,/4F,,/4E,,/4F,,/4E,,/4F,,/4 E,,/4F,,/4E,,/4F,,/4E,,/4F,,/4E,,/4F,,/4) | %102
 z/4 (_F,,/4E,,/4F,,/4E,,/4F,,/4E,,/4F,,/4 E,,/4F,,/4E,,/4F,,/4E,,/4F,,/4E,,/4F,,/4) z/4 (F,,/4E,,/4F,,/4E,,/4F,,/4E,,/4F,,/4 E,,/4F,,/4E,,/4F,,/4E,,/4F,,/4E,,/4F,,/4) | %103
 z/4 (_F,,/4E,,/4F,,/4E,,/4F,,/4E,,/4F,,/4 E,,/4F,,/4E,,/4F,,/4E,,/4F,,/4E,,/4F,,/4) z/4 (F,,/4E,,/4F,,/4E,,/4F,,/4E,,/4F,,/4 E,,/4F,,/4E,,/4F,,/4E,,/4F,,/4E,,/4F,,/4) | %104
!ped! [A,,,A,,]!pp! (E,,/4_F,,/4E,,/4F,,/4 E,,/4F,,/4E,,/4F,,/4E,,/4F,,/4E,,/4F,,/4) z/4 (F,,/4E,,/4F,,/4E,,/4F,,/4E,,/4F,,/4 E,,/4F,,/4E,,/4F,,/4E,,/4F,,/4E,,/4F,,/4)!ped-up! | %105
 z/4 (_F,,/4E,,/4F,,/4E,,/4F,,/4E,,/4F,,/4 E,,/4F,,/4E,,/4F,,/4E,,/4F,,/4E,,/4F,,/4) z/4 (F,,/4E,,/4F,,/4E,,/4F,,/4E,,/4F,,/4 E,,/4F,,/4E,,/4F,,/4E,,/4F,,/4E,,/4F,,/4) | %106
 z/4 (_F,,/4E,,/4F,,/4E,,/4F,,/4E,,/4F,,/4 E,,/4F,,/4E,,/4F,,/4E,,/4F,,/4E,,/4F,,/4) z/4 (F,,/4E,,/4F,,/4E,,/4F,,/4E,,/4F,,/4 E,,/4F,,/4E,,/4F,,/4E,,/4F,,/4E,,/4F,,/4) | %107
 z/4 (_F,,/4E,,/4F,,/4E,,/4F,,/4E,,/4F,,/4 E,,/4F,,/4E,,/4F,,/4E,,/4F,,/4E,,/4F,,/4) z/4 (F,,/4E,,/4F,,/4E,,/4F,,/4E,,/4F,,/4 E,,/4F,,/4E,,/4F,,/4E,,/4F,,/4E,,/4F,,/4) | %108
 z/4 (_F,,/4E,,/4F,,/4E,,/4F,,/4E,,/4F,,/4 E,,/4F,,/4E,,/4F,,/4E,,/4F,,/4E,,/4F,,/4) z/4 (F,,/4E,,/4F,,/4E,,/4F,,/4E,,/4F,,/4 E,,/4F,,/4E,,/4F,,/4E,,/4F,,/4E,,/4F,,/4) | %109
 z/4 (_F,,/4E,,/4F,,/4E,,/4F,,/4E,,/4F,,/4 E,,/4F,,/4E,,/4F,,/4E,,/4F,,/4E,,/4F,,/4) z/4 (F,,/4E,,/4F,,/4E,,/4F,,/4E,,/4F,,/4 E,,/4F,,/4E,,/4F,,/4E,,/4F,,/4E,,/4F,,/4) | %110
 z/4 (_F,,/4E,,/4F,,/4E,,/4F,,/4E,,/4F,,/4 E,,/4F,,/4E,,/4F,,/4E,,/4F,,/4E,,/4F,,/4) z/4 (F,,/4E,,/4F,,/4E,,/4F,,/4E,,/4F,,/4 E,,/4F,,/4E,,/4F,,/4E,,/4F,,/4E,,/4F,,/4) | %111
 z/4 (_F,,/4E,,/4F,,/4E,,/4F,,/4E,,/4F,,/4 E,,/4F,,/4E,,/4F,,/4E,,/4F,,/4E,,/4F,,/4) z/4 (F,,/4E,,/4F,,/4E,,/4F,,/4E,,/4F,,/4 E,,/4F,,/4E,,/4F,,/4E,,/4F,,/4E,,/4F,,/4) | %112
 z/4 (_F,,/4E,,/4F,,/4E,,/4F,,/4E,,/4F,,/4 E,,/4F,,/4E,,/4F,,/4E,,/4F,,/4E,,/4F,,/4) z/4 (F,,/4E,,/4F,,/4E,,/4F,,/4E,,/4F,,/4 E,,/4F,,/4E,,/4F,,/4E,,/4F,,/4E,,/4F,,/4) | %113
 z/4 (_F,,/4E,,/4F,,/4E,,/4F,,/4E,,/4F,,/4 E,,/4F,,/4E,,/4F,,/4E,,/4F,,/4E,,/4F,,/4) z/4 (F,,/4E,,/4F,,/4E,,/4F,,/4E,,/4F,,/4 E,,/4F,,/4E,,/4F,,/4E,,/4F,,/4E,,/4F,,/4) | %114
 z/4 (_F,,/4E,,/4F,,/4E,,/4F,,/4E,,/4F,,/4 E,,/4F,,/4E,,/4F,,/4E,,/4F,,/4E,,/4F,,/4) z/4 (F,,/4E,,/4F,,/4E,,/4F,,/4E,,/4F,,/4 E,,/4F,,/4E,,/4F,,/4E,,/4F,,/4E,,/4F,,/4) | %115
 z/4 (A,,/4=G,,/4A,,/4G,,/4A,,/4G,,/4A,,/4 G,,/4A,,/4G,,/4A,,/4G,,/4A,,/4G,,/4A,,/4) z/4 (A,,/4G,,/4A,,/4G,,/4A,,/4G,,/4A,,/4 G,,/4A,,/4G,,/4A,,/4G,,/4A,,/4G,,/4A,,/4) | %116
 z/4 (A,,/4G,,/4A,,/4G,,/4A,,/4G,,/4A,,/4 G,,/4A,,/4G,,/4A,,/4G,,/4A,,/4G,,/4A,,/4) z/4 (A,,/4G,,/4A,,/4G,,/4A,,/4G,,/4A,,/4 G,,/4A,,/4G,,/4A,,/4G,,/4A,,/4G,,/4A,,/4) | %117
 z/4 (B,,/4=A,,/4B,,/4A,,/4B,,/4A,,/4B,,/4 A,,/4B,,/4A,,/4B,,/4A,,/4B,,/4A,,/4B,,/4) z/4 B,,/4A,,/4B,,/4A,,/4B,,/4A,,/4B,,/4 A,,/4B,,/4A,,/4B,,/4A,,/4B,,/4A,,/4B,,/4 | %118
 z/4 (C,/4=B,,/4C,/4B,,/4C,/4B,,/4C,/4) z/4 (C,/4B,,/4C,/4B,,/4C,/4B,,/4C,/4) z/4 (D,/4C,/4D,/4C,/4D,/4C,/4D,/4) C,/4(D,/4C,/4D,/4C,/4D,/4C,/4D,/4) | %119
 z/4 (D,/4C,/4D,/4C,/4D,/4C,/4D,/4 C,/4D,/4C,/4D,/4C,/4D,/4C,/4D,/4) z/4 (D,/4C,/4D,/4C,/4D,/4C,/4D,/4 C,/4D,/4C,/4D,/4C,/4D,/4C,/4D,/4) | %120
 [D,,D,]2 [A,C_DF]2 [A,CDF]2 [A,CDF]2 ||[M:2/4] [A,CDF]2 [A,CDF] z || %122
[M:4/4] [E,,E,] z!ped! !>!E,2 !>!F,2 !>!A,2!ped-up! |{[E,,,E,,]} !>!G,2 F,>C, E,2- E, z | %124
 z2 A,>B, C2 A,>B, | C2 (3B,A,C E2- E z | %126
 [=D,,,=D,,]!<(! (6:4:6(=E,,/4^F,,/4^G,,/4=A,,/4=B,,/4^C,/4)!<)! =D,2 [_E,,_E,] z [E,A,C]2 | %127
 [_F,,,_F,,] (6:4:6(_G,,/4A,,/4B,,/4_C,/4D,/4E,/4) _F,2 [=F,,=F,] z [F,B,=D]2 | %128
 [_G,,,_G,,] (6:4:6(A,,/4B,,/4C,/4D,/4E,/4F,/4) _G,2 [A,,,A,,]2 [G,A,CE]2- | %129
 [_G,A,CE]2 [G,A,CE]4 [G,A,CE] z |!ped! z2 [A,B,DF]4 [A,B,DF]2!ped-up! | %131
!ped! z2 [A,B,DF]4 [A,B,DF]2!ped-up! | z2 [B,DFG]4 [B,DFG]2 | %133
 z2 (!arpeggio![B,-D-E-A]2 [B,DEG]2) (!arpeggio![E,-B,-DF]2 | %134
 [E,B,DE]2) !arpeggio![E,A,CF]4 ([E,A,C]D | !arpeggio![E,G,CE]4-)!ped! [E,G,CE]2 z2!ped-up! | %136
 !arpeggio![E,B,DF]4-!ped! [E,B,DF]2 z2!ped-up! | !arpeggio![E,B,EG]4-!ped! [E,B,EG]2 z2!ped-up! | %138
 !arpeggio![E,B,EG]4-!ped! [E,B,EG]2 !fermata!z2!ped-up! ||[K:treble] !arpeggio![A,CEA]8 | z8 | %141
 !arpeggio![EAc]8- | [EAc]4- [EAc]2 z2 | !arpeggio![EAd]4 !arpeggio![DAc]4 | %144
 !arpeggio![EAd]4 !arpeggio![EAc]4 | !arpeggio![EAc]4 !arpeggio![FAd]4 | %146
 !arpeggio![EAc]4 !arpeggio![FAd]4 | (B2 c2 e2 f2 | g2) a4- a z | !arpeggio![EGc]8 | %150
 [EAd]4 !arpeggio![EBd]4 |[K:bass]!ped! !//-!G,,,2 A,,,2 !//-!G,,,2 A,,,2 | %152
 !//-!G,,,2 A,,,2 !//-!G,,,2 A,,,2 | A,,,!ped-up! z z2 !fermata!z4 |] %154
V:4
 x8 | x8 | x8 | x8 | x8 | x8 | x8 | x8 | x8 | x8 | x8 | x8 | x8 |[K:treble] x8 | x8 | x8 || %16
[K:Db] x8 | x x x2 x2 !///-!f _c | x8 | z x !>!d2 !>!_c2- c z | x8 | z x !>!d2 !>!c2- c z | x8 | %23
 x8 | x8 | x x !>!e2 !>!d2 x x | x8 | x8 | x8 | x2[K:bass] x6 | x8 | x8 | x8 | x8 |[K:treble] x8 | %35
 x8 | x8 | x8 | x8 | x8 | x8 | x8 | x8 | x8 | x8 || x8 | x8 |[K:bass] x8 | x8 | x8 | x8 | x8 | x8 | %53
 x8 | x8 | x8 |[K:treble] x8 | x8 | x8 | x8 | x8 | x8 | x8 | x8 | x8 |!8va(! x8 | x8 | x8 | x8 | %69
 x8 | x8 | x5!8va)! x3 | x8 | x8 | x8 | x8 | x8 | x8 | x8 |!8va(! x8 | x!8va)! x7 | x8 | %82
[K:bass] x8 | x8 | x8 | x8 | x8 | x8 | x8 | x8 | x8 | x8 | x8 ||[K:Ab] (C,2 E,2 F,2 A,2 | %94
 G,2 F,>C, E,4) | (E,,2 A,,>B,, C,2 A,,>B,, | C,2 (3B,,A,,C, E,4) | (F,4 E,2) (3(C,B,,A,, | %98
 D,2 F,2 E,4) | (_G,4 F,2 E,>D, | _G,4 F,2) (B,2- | B,2 A,2 G,2 F,2 | E,2 F,4) (C,>D, | %103
 E,4 C,2 B,,2) | %104
[K:treble] (6:4:6z/ (A,/E,/ A,/E,/A,/) (6:4:6z/ (C/A,/ C/A,/C/) (6:4:6z/ (C/A,/ C/A,/C/) (6:4:6z/ (E/C/ E/C/E/) | %105
 (6:4:6z/ (C/A,/ C/A,/C/) (6:4:6z/ (C/A,/ C/A,/C/) (6:4:6z/ (C/A,/ C/A,/C/ (6:4:6A,/C/A,/ C/A,/C/) | %106
 (E,2 A,>B, C2 A,>B, | C2 (3B,A,C E4) | (F4 E2 (3CB,A, | D2 F2 E2) (3CB,A, | _G4 F2 E>D | %111
 (_G4 F2) B2- | B2 A2 G2 F2 | (E2 F4) (C>D | E4 C2 B,2) | ([_G,_G]4 [F,F]2 [E,E][D,D]) | %116
 ([_G,_G]4 [F,F]2 [E,E][D,D]) | [A,A]4 [G,G]2 [F,F][E,E] | [B,B]2 [A,A]2 ([Ee]2 [Dd][_C_c]) | x8 | %120
 x4!8va(! x4 ||[M:2/4] x4 ||[M:4/4] x8 | x7!8va)! x | x8 | x8 | x8 | x8 | x8 | x8 | %130
!8va(! x!8va)! x7 | x8 | x8 |!8va(! x8 | x8 | x8 | x8 | x8 | x6!8va)! x2 || x8 | x8 | x8 | x8 | %143
 x8 | x8 | x8 | !arpeggio![_g_g']4 !arpeggio![faf']4 | x8 | x8 | x8 | x8 |!8va(! x8 | x8 | %153
 x!8va)! x7 |] %154
V:5
 x8 | x8 | x8 | x8 | x8 | x8 | x8 | x8 | x8 | x8 | x8 | x8 | x8 | x8 | x8 | x8 || %16
[K:Db] x2[K:treble] x6 | x x !>!D2 !>!_C2- C2 | x8 | z x !>!D2 !>!_C2- C z | x8 | %21
 x x !>!D2 !>!C2- C x | x8 | x8 | x8 | z x !>!E2 !>!D2- D z | x8 | x8 |[K:bass] x8 | x8 | %30
 A,,4 =G,,>=B,, =D,2 | G,,4 F,,>=A,, C,2 | (G,,2 F,,2 G,,2 F,,2) | !>!G,,3 !>!F,, !>!_F,,4 | x8 | %35
 x8 | x8 | x8 | x8 | x8 | x8 | x8 | x8 | x8 | x8 ||!8vb(! x8 | x8 | x8 | x8 | x8 | x8 | x8 | x8 | %53
 x8 | x8 | x8 | x8 | x8 | x8 | x8!8vb)! | x8 | x8 | x8 | x8 | x8 | x4[K:treble] x4 | x8 | x8 | x8 | %69
 x8 | x8 | x8 |[K:bass] x8 | x8 | x8 | x8 | x8 | x8 | x8 |!8vb(! x8 | x!8vb)! x7 | x8 |!8vb(! x8 | %83
 x8 | x8 | x8 | x2!8vb)! x6 | x8 | x8 | x8 | x8 | x8 | x8 ||[K:Ab] A,,,2 z2 A,,,2 z2 | %94
 A,,,2 z2 A,,,2 z2 | A,,,2 z2 A,,,2 z2 | A,,,2 z2 A,,,2 z2 | A,,,2 z2 A,,,2 z2 | %98
 A,,,2 z2 A,,,2 z2 | A,,,2 z2 A,,,2 z2 | A,,,2 z2 A,,,2 z2 | A,,,2 z2 A,,,2 z2 | %102
 A,,,2 z2 A,,,2 z2 | A,,,2 z2 A,,,2 z2 | x2 x2 A,,,2 z2 | A,,,2 z2 A,,,2 z2 | A,,,2 z2 A,,,2 z2 | %107
 A,,,2 z2 A,,,2 z2 | A,,,2 z2 A,,,2 z2 | A,,,2 z2 A,,,2 z2 | A,,,2 z2 A,,,2 z2 | %111
 A,,,2 z2 A,,,2 z2 | A,,,2 z2 A,,,2 z2 | A,,,2 z2 A,,,2 z2 | A,,,2 z2 A,,,2 z2 | A,,,2 z2 D,,2 z2 | %116
 A,,,2 z2 D,,2 z2 | B,,,2 z2 E,,2 z2 | C,,2 F,,2 D,,2- D,,2 | D,,2 z2 D,,2 z2 | x8 ||[M:2/4] x4 || %122
[M:4/4] x8 | x8 | [E,,E,]4- [E,,E,]2 z2 | z4 z2 [E,,,E,,]2 | x8 | x8 | x8 | x8 | [_D,,,_D,,]8 | %131
 [B,,,B,,]8 | [D,,D,]8 | [E,,,E,,]8 | z4 E,,2 z2 | z2 E,,4 E,,2 | z2 !arpeggio!E,,4 E,,2 | %137
 z2 E,,4 E,,2 | z2 E,,4 E,,2 ||[K:treble] x8 | x8 | x8 | x8 | x8 | x8 | x8 | x8 | x8 | x8 | x8 | %150
 x8 |[K:bass] x8 | x8 | x8 |] %154

